public/icons/exe_unlock_tomorrow.svg

<svg viewBox="0 0 562 77" xmlns="http://www.w3.org/2000/svg" xml:space="preserve" style="fill-rule:evenodd;clip-rule:evenodd;stroke-linejoin:round;stroke-miterlimit:2"><path d="M0 3.559C0 11.18-5.472 14.66-11.501 14.66c-6.08 0-11.525-3.48-11.525-11.101v-14.66h4.356v14.26c0 5.153 3.053 7.437 7.169 7.437 4.091 0 7.145-2.284 7.145-7.437v-14.26H0v14.66Z" style="fill:#a5b3b7;fill-rule:nonzero" transform="translate(159.89 37.865)"/><path d="M0-5.575v15.668h-4.356v-14.26c0-4.648-2.548-7.386-6.932-7.386-4.064 0-7.463 2.79-7.463 7.491v14.155h-4.33v-25.229h4.303v3.292c2.072-2.84 5.34-3.824 8.26-3.824C-4.302-15.668 0-11.631 0-5.575" style="fill:#a5b3b7;fill-rule:nonzero" transform="translate(190.04 41.9)"/><path style="fill:#a5b3b7" d="M197.168 24.305h4.329v38.243h-4.329z" transform="matrix(-1 0 0 1 398.665 -10.555)"/><path d="M0 0c0 5.286 3.824 9.082 8.896 9.082 5.048 0 8.898-3.796 8.898-9.082 0-5.286-3.85-9.058-8.898-9.058C3.824-9.058 0-5.286 0 0m22.256 0c0 7.488-5.71 13.146-13.36 13.146C1.249 13.146-4.435 7.488-4.435 0c0-7.491 5.684-13.146 13.331-13.146 7.65 0 13.36 5.655 13.36 13.146" style="fill:#a5b3b7;fill-rule:nonzero" transform="translate(211.558 39.38)"/><path d="m0-18.327-2.789 2.948c-1.859-1.805-4.011-2.843-6.691-2.843-4.862 0-8.553 3.773-8.553 9.059 0 5.285 3.691 9.082 8.553 9.082 2.68 0 5.045-1.195 6.799-2.894L0 .024c-2.284 2.578-5.629 3.959-9.375 3.959-7.81 0-13.092-5.659-13.092-13.146 0-7.491 5.282-13.147 13.092-13.147 3.746 0 7.118 1.381 9.375 3.983" style="fill:#a5b3b7;fill-rule:nonzero" transform="translate(260.17 48.542)"/><path d="M0 7.966h3.453l9.374-10.09H18.3L7.039 9.774l11.42 13.33H12.96L3.426 11.898H0v11.206h-4.329v-38.242H0V7.966Z" style="fill:#a5b3b7;fill-rule:nonzero" transform="translate(269.244 28.89)"/><path d="M0-9.934h-10.596V2.361c0 3.8 2.019 5.445 4.753 5.445 1.86 0 3.719-.716 5.154-1.699l2.045 3.267c-1.94 1.408-4.461 2.497-7.569 2.497-5.472 0-8.739-3.003-8.739-9.429V-9.934h-5.391v-3.956h5.391v-7.915h4.356v7.915H0v3.956Z" style="fill:#a5b3b7;fill-rule:nonzero" transform="translate(321.836 40.655)"/><path d="M0 0c0 5.286 3.823 9.082 8.896 9.082 5.047 0 8.899-3.796 8.899-9.082 0-5.286-3.852-9.058-8.899-9.058C3.823-9.058 0-5.286 0 0m22.256 0c0 7.488-5.71 13.146-13.36 13.146C1.248 13.146-4.435 7.488-4.435 0c0-7.491 5.683-13.146 13.331-13.146 7.65 0 13.36 5.655 13.36 13.146" style="fill:#a5b3b7;fill-rule:nonzero" transform="translate(328.853 39.38)"/><path d="M0-5.575v15.668h-4.355v-14.26c0-4.648-2.551-7.386-6.932-7.386-4.17 0-7.437 2.897-7.437 7.491v14.155h-4.356v-14.26c0-4.648-2.548-7.386-6.931-7.386-4.064 0-7.464 2.79-7.464 7.491v14.155h-4.329v-25.229h4.302v3.292c2.072-2.84 5.34-3.824 8.261-3.824 4.275 0 7.647 1.913 9.323 5.072 2.07-3.824 5.975-5.072 9.401-5.072C-4.277-15.668 0-11.631 0-5.575" style="fill:#a5b3b7;fill-rule:nonzero" transform="translate(398.58 41.9)"/><path d="M0 0c0 5.286 3.824 9.082 8.896 9.082 5.048 0 8.899-3.796 8.899-9.082 0-5.286-3.851-9.058-8.899-9.058C3.824-9.058 0-5.286 0 0m22.256 0c0 7.488-5.71 13.146-13.36 13.146C1.249 13.146-4.435 7.488-4.435 0c0-7.491 5.684-13.146 13.331-13.146 7.65 0 13.36 5.655 13.36 13.146" style="fill:#a5b3b7;fill-rule:nonzero" transform="translate(408.354 39.38)"/><path d="m0-24.113-1.062 4.275c-1.194-.637-2.894-.983-4.329-.983-3.851 0-6.561 2.948-6.561 7.596V.824h-4.329v-25.229h4.277v3.319c1.752-2.47 4.381-3.851 7.383-3.851 1.806 0 3.267.238 4.621.824" style="fill:#a5b3b7;fill-rule:nonzero" transform="translate(452.558 51.17)"/><path d="m0-24.113-1.062 4.275c-1.194-.637-2.894-.983-4.329-.983-3.851 0-6.561 2.948-6.561 7.596V.824h-4.329v-25.229h4.277v3.319c1.752-2.47 4.381-3.851 7.383-3.851 1.806 0 3.267.238 4.621.824" style="fill:#a5b3b7;fill-rule:nonzero" transform="translate(472.982 51.17)"/><path d="M0 0c0 5.286 3.824 9.082 8.896 9.082 5.048 0 8.899-3.796 8.899-9.082 0-5.286-3.851-9.058-8.899-9.058C3.824-9.058 0-5.286 0 0m22.256 0c0 7.488-5.71 13.146-13.36 13.146C1.249 13.146-4.435 7.488-4.435 0c0-7.491 5.684-13.146 13.331-13.146 7.65 0 13.36 5.655 13.36 13.146" style="fill:#a5b3b7;fill-rule:nonzero" transform="translate(479.027 39.38)"/><path d="M0 16.148 7.172-4.54h4.54L2.63 20.688h-5.178L-9.774.159l-7.196 20.529h-5.099L-31.151-4.54h4.647l7.143 20.634 7.198-20.634h4.913L0 16.148Z" style="fill:#a5b3b7;fill-rule:nonzero" transform="translate(533.975 31.305)"/><path style="fill:#db323c" d="M113.591 52.844h7.818v7.818h-7.818z" transform="matrix(-1 0 0 1 235 -37.208)"/><path style="fill:#db323c" d="M113.591 15.636h7.818v7.818h-7.818z" transform="matrix(-1 0 0 1 235 37.208)"/><path d="M0-5.866c.924-3.781 3.594-6.005 7.295-6.005 3.553 0 6.134 2.275 6.912 6.005H0Zm16.267 8.379-.687.594c-2.237 1.933-4.878 2.954-7.64 2.954-4.258 0-7.203-2.412-8.036-6.509h20.722l.045-.814.027-.428c.028-.409.058-.872.058-1.327v-.006c-.059-8.614-5.56-14.631-13.376-14.631-8.157 0-14.077 6.191-14.077 14.721 0 8.667 5.904 14.721 14.357 14.721 4.73 0 8.386-1.355 11.506-4.263l.576-.537-3.475-4.475Z" style="fill:#fff;fill-rule:nonzero" transform="translate(22.305 41.062)"/><path d="M0-28.321h-7.603l-7.277 9.289-7.225-9.289H-29.9l10.929 13.885L-30.133 0h7.526l7.477-9.678L-7.546 0h7.8l-11.188-14.49L0-28.321Z" style="fill:#fff;fill-rule:nonzero" transform="translate(72.134 52.289)"/><path d="M0-17.876c3.552 0 6.133 2.274 6.912 6.005H-7.296c.924-3.781 3.594-6.005 7.296-6.005m.083-5.783c-8.156 0-14.076 6.191-14.076 14.721 0 8.667 5.904 14.721 14.357 14.721 4.73 0 8.387-1.355 11.507-4.263l.576-.537-3.476-4.475-.687.594C6.048-.965 3.406.056.644.056c-4.258 0-7.203-2.412-8.036-6.509H13.33l.045-.814.027-.428c.028-.409.058-.872.058-1.327v-.006C13.401-17.642 7.901-23.659.083-23.659" style="fill:#fff;fill-rule:nonzero" transform="translate(84.723 47.067)"/></svg>

<?xml version="1.0" encoding="UTF-8" standalone="no"?>
<!DOCTYPE svg PUBLIC "-//W3C//DTD SVG 1.1//EN" "http://www.w3.org/Graphics/SVG/1.1/DTD/svg11.dtd">
<svg width="100%" height="100%" viewBox="0 0 562 77" version="1.1" xmlns="http://www.w3.org/2000/svg" xmlns:xlink="http://www.w3.org/1999/xlink" xml:space="preserve" xmlns:serif="http://www.serif.com/" style="fill-rule:evenodd;clip-rule:evenodd;stroke-linejoin:round;stroke-miterlimit:2;">
    <g transform="matrix(1,0,0,1,159.89,37.865)">
        <path d="M0,3.559C0,11.18 -5.472,14.66 -11.501,14.66C-17.581,14.66 -23.026,11.18 -23.026,3.559L-23.026,-11.101L-18.67,-11.101L-18.67,3.159C-18.67,8.312 -15.617,10.596 -11.501,10.596C-7.41,10.596 -4.356,8.312 -4.356,3.159L-4.356,-11.101L0,-11.101L0,3.559Z" style="fill:rgb(165,179,183);fill-rule:nonzero;"/>
    </g>
    <g transform="matrix(1,0,0,1,190.04,41.9)">
        <path d="M0,-5.575L0,10.093L-4.356,10.093L-4.356,-4.167C-4.356,-8.815 -6.904,-11.553 -11.288,-11.553C-15.352,-11.553 -18.751,-8.763 -18.751,-4.062L-18.751,10.093L-23.081,10.093L-23.081,-15.136L-18.778,-15.136L-18.778,-11.844C-16.706,-14.684 -13.438,-15.668 -10.518,-15.668C-4.302,-15.668 0,-11.631 0,-5.575" style="fill:rgb(165,179,183);fill-rule:nonzero;"/>
    </g>
    <g transform="matrix(-1,0,0,1,398.665,-10.555)">
        <rect x="197.168" y="24.305" width="4.329" height="38.243" style="fill:rgb(165,179,183);"/>
    </g>
    <g transform="matrix(1,0,0,1,211.558,39.38)">
        <path d="M0,0C0,5.286 3.824,9.082 8.896,9.082C13.944,9.082 17.794,5.286 17.794,0C17.794,-5.286 13.944,-9.058 8.896,-9.058C3.824,-9.058 0,-5.286 0,0M22.256,0C22.256,7.488 16.546,13.146 8.896,13.146C1.249,13.146 -4.435,7.488 -4.435,0C-4.435,-7.491 1.249,-13.146 8.896,-13.146C16.546,-13.146 22.256,-7.491 22.256,0" style="fill:rgb(165,179,183);fill-rule:nonzero;"/>
    </g>
    <g transform="matrix(1,0,0,1,260.17,48.542)">
        <path d="M0,-18.327L-2.789,-15.379C-4.648,-17.184 -6.8,-18.222 -9.48,-18.222C-14.342,-18.222 -18.033,-14.449 -18.033,-9.163C-18.033,-3.878 -14.342,-0.081 -9.48,-0.081C-6.8,-0.081 -4.435,-1.276 -2.681,-2.975L0,0.024C-2.284,2.602 -5.629,3.983 -9.375,3.983C-17.185,3.983 -22.467,-1.676 -22.467,-9.163C-22.467,-16.654 -17.185,-22.31 -9.375,-22.31C-5.629,-22.31 -2.257,-20.929 0,-18.327" style="fill:rgb(165,179,183);fill-rule:nonzero;"/>
    </g>
    <g transform="matrix(1,0,0,1,269.244,28.89)">
        <path d="M0,7.966L3.453,7.966L12.827,-2.124L18.3,-2.124L7.039,9.774L18.459,23.104L12.96,23.104L3.426,11.898L0,11.898L0,23.104L-4.329,23.104L-4.329,-15.138L0,-15.138L0,7.966Z" style="fill:rgb(165,179,183);fill-rule:nonzero;"/>
    </g>
    <g transform="matrix(1,0,0,1,321.836,40.655)">
        <path d="M0,-9.934L-10.596,-9.934L-10.596,2.361C-10.596,6.161 -8.577,7.806 -5.843,7.806C-3.983,7.806 -2.124,7.09 -0.689,6.107L1.356,9.374C-0.584,10.782 -3.105,11.871 -6.213,11.871C-11.685,11.871 -14.952,8.868 -14.952,2.442L-14.952,-9.934L-20.343,-9.934L-20.343,-13.89L-14.952,-13.89L-14.952,-21.805L-10.596,-21.805L-10.596,-13.89L0,-13.89L0,-9.934Z" style="fill:rgb(165,179,183);fill-rule:nonzero;"/>
    </g>
    <g transform="matrix(1,0,0,1,328.853,39.38)">
        <path d="M0,0C0,5.286 3.823,9.082 8.896,9.082C13.943,9.082 17.795,5.286 17.795,0C17.795,-5.286 13.943,-9.058 8.896,-9.058C3.823,-9.058 0,-5.286 0,0M22.256,0C22.256,7.488 16.546,13.146 8.896,13.146C1.248,13.146 -4.435,7.488 -4.435,0C-4.435,-7.491 1.248,-13.146 8.896,-13.146C16.546,-13.146 22.256,-7.491 22.256,0" style="fill:rgb(165,179,183);fill-rule:nonzero;"/>
    </g>
    <g transform="matrix(1,0,0,1,398.58,41.9)">
        <path d="M0,-5.575L0,10.093L-4.355,10.093L-4.355,-4.167C-4.355,-8.815 -6.906,-11.553 -11.287,-11.553C-15.457,-11.553 -18.724,-8.656 -18.724,-4.062L-18.724,10.093L-23.08,10.093L-23.08,-4.167C-23.08,-8.815 -25.628,-11.553 -30.011,-11.553C-34.075,-11.553 -37.475,-8.763 -37.475,-4.062L-37.475,10.093L-41.804,10.093L-41.804,-15.136L-37.502,-15.136L-37.502,-11.844C-35.43,-14.684 -32.162,-15.668 -29.241,-15.668C-24.966,-15.668 -21.594,-13.755 -19.918,-10.596C-17.848,-14.42 -13.943,-15.668 -10.517,-15.668C-4.277,-15.668 0,-11.631 0,-5.575" style="fill:rgb(165,179,183);fill-rule:nonzero;"/>
    </g>
    <g transform="matrix(1,0,0,1,408.354,39.38)">
        <path d="M0,0C0,5.286 3.824,9.082 8.896,9.082C13.944,9.082 17.795,5.286 17.795,0C17.795,-5.286 13.944,-9.058 8.896,-9.058C3.824,-9.058 0,-5.286 0,0M22.256,0C22.256,7.488 16.546,13.146 8.896,13.146C1.249,13.146 -4.435,7.488 -4.435,0C-4.435,-7.491 1.249,-13.146 8.896,-13.146C16.546,-13.146 22.256,-7.491 22.256,0" style="fill:rgb(165,179,183);fill-rule:nonzero;"/>
    </g>
    <g transform="matrix(1,0,0,1,452.558,51.17)">
        <path d="M0,-24.113L-1.062,-19.838C-2.256,-20.475 -3.956,-20.821 -5.391,-20.821C-9.242,-20.821 -11.952,-17.873 -11.952,-13.225L-11.952,0.824L-16.281,0.824L-16.281,-24.405L-12.004,-24.405L-12.004,-21.086C-10.252,-23.556 -7.623,-24.937 -4.621,-24.937C-2.815,-24.937 -1.354,-24.699 0,-24.113" style="fill:rgb(165,179,183);fill-rule:nonzero;"/>
    </g>
    <g transform="matrix(1,0,0,1,472.982,51.17)">
        <path d="M0,-24.113L-1.062,-19.838C-2.256,-20.475 -3.956,-20.821 -5.391,-20.821C-9.242,-20.821 -11.952,-17.873 -11.952,-13.225L-11.952,0.824L-16.281,0.824L-16.281,-24.405L-12.004,-24.405L-12.004,-21.086C-10.252,-23.556 -7.623,-24.937 -4.621,-24.937C-2.815,-24.937 -1.354,-24.699 0,-24.113" style="fill:rgb(165,179,183);fill-rule:nonzero;"/>
    </g>
    <g transform="matrix(1,0,0,1,479.027,39.38)">
        <path d="M0,0C0,5.286 3.824,9.082 8.896,9.082C13.944,9.082 17.795,5.286 17.795,0C17.795,-5.286 13.944,-9.058 8.896,-9.058C3.824,-9.058 0,-5.286 0,0M22.256,0C22.256,7.488 16.546,13.146 8.896,13.146C1.249,13.146 -4.435,7.488 -4.435,0C-4.435,-7.491 1.249,-13.146 8.896,-13.146C16.546,-13.146 22.256,-7.491 22.256,0" style="fill:rgb(165,179,183);fill-rule:nonzero;"/>
    </g>
    <g transform="matrix(1,0,0,1,533.975,31.305)">
        <path d="M0,16.148L7.172,-4.54L11.712,-4.54L2.63,20.688L-2.548,20.688L-9.774,0.159L-16.97,20.688L-22.069,20.688L-31.151,-4.54L-26.504,-4.54L-19.361,16.094L-12.163,-4.54L-7.25,-4.54L0,16.148Z" style="fill:rgb(165,179,183);fill-rule:nonzero;"/>
    </g>
    <g transform="matrix(-1,0,0,1,235,-37.208)">
        <rect x="113.591" y="52.844" width="7.818" height="7.818" style="fill:rgb(219,50,60);"/>
    </g>
    <g transform="matrix(-1,0,0,1,235,37.208)">
        <rect x="113.591" y="15.636" width="7.818" height="7.818" style="fill:rgb(219,50,60);"/>
    </g>
    <g transform="matrix(1,0,0,1,22.305,41.062)">
        <path d="M0,-5.866C0.924,-9.647 3.594,-11.871 7.295,-11.871C10.848,-11.871 13.429,-9.596 14.207,-5.866L0,-5.866ZM16.267,2.513L15.58,3.107C13.343,5.04 10.702,6.061 7.94,6.061C3.682,6.061 0.737,3.649 -0.096,-0.448L20.626,-0.448L20.671,-1.262L20.698,-1.69C20.726,-2.099 20.756,-2.562 20.756,-3.017L20.756,-3.023C20.697,-11.637 15.196,-17.654 7.38,-17.654C-0.777,-17.654 -6.697,-11.463 -6.697,-2.933C-6.697,5.734 -0.793,11.788 7.66,11.788C12.39,11.788 16.046,10.433 19.166,7.525L19.742,6.988L16.267,2.513Z" style="fill-rule:nonzero;"/>
    </g>
    <g transform="matrix(1,0,0,1,72.134,52.289)">
        <path d="M0,-28.321L-7.603,-28.321L-14.88,-19.032L-22.105,-28.321L-29.9,-28.321L-18.971,-14.436L-30.133,0L-22.607,0L-15.13,-9.678L-7.546,0L0.254,0L-10.934,-14.49L0,-28.321Z" style="fill-rule:nonzero;"/>
    </g>
    <g transform="matrix(1,0,0,1,84.723,47.067)">
        <path d="M0,-17.876C3.552,-17.876 6.133,-15.602 6.912,-11.871L-7.296,-11.871C-6.372,-15.652 -3.702,-17.876 0,-17.876M0.083,-23.659C-8.073,-23.659 -13.993,-17.468 -13.993,-8.938C-13.993,-0.271 -8.089,5.783 0.364,5.783C5.094,5.783 8.751,4.428 11.871,1.52L12.447,0.983L8.971,-3.492L8.284,-2.898C6.048,-0.965 3.406,0.056 0.644,0.056C-3.614,0.056 -6.559,-2.356 -7.392,-6.453L13.33,-6.453L13.375,-7.267L13.402,-7.695C13.43,-8.104 13.46,-8.567 13.46,-9.022L13.46,-9.028C13.401,-17.642 7.901,-23.659 0.083,-23.659" style="fill-rule:nonzero;"/>
    </g>
</svg>
